Numix/32x32/categories/applications-java.svg

<?xml version="1.0" encoding="UTF-8" standalone="no"?>
<svg
   xmlns:dc="http://purl.org/dc/elements/1.1/"
   xmlns:cc="http://creativecommons.org/ns#"
   xmlns:rdf="http://www.w3.org/1999/02/22-rdf-syntax-ns#"
   xmlns:svg="http://www.w3.org/2000/svg"
   xmlns="http://www.w3.org/2000/svg"
   xmlns:sodipodi="http://sodipodi.sourceforge.net/DTD/sodipodi-0.dtd"
   xmlns:inkscape="http://www.inkscape.org/namespaces/inkscape"
   width="32"
   height="32"
   viewBox="0 0 32 32"
   id="svg2"
   version="1.1"
   inkscape:version="0.91 r"
   sodipodi:docname="applications-java.svg">
  <metadata
     id="metadata26">
    <rdf:RDF>
      <cc:Work
         rdf:about="">
        <dc:format>image/svg+xml</dc:format>
        <dc:type
           rdf:resource="http://purl.org/dc/dcmitype/StillImage" />
      </cc:Work>
    </rdf:RDF>
  </metadata>
  <defs
     id="defs24" />
  <sodipodi:namedview
     pagecolor="#ffffff"
     bordercolor="#666666"
     borderopacity="1"
     objecttolerance="10"
     gridtolerance="10"
     guidetolerance="10"
     inkscape:pageopacity="0"
     inkscape:pageshadow="2"
     inkscape:window-width="1920"
     inkscape:window-height="1056"
     id="namedview22"
     showgrid="false"
     inkscape:zoom="7.375"
     inkscape:cx="16"
     inkscape:cy="16"
     inkscape:window-x="0"
     inkscape:window-y="24"
     inkscape:window-maximized="1"
     inkscape:current-layer="svg2" />
  <g
     style="fill:#e660c1;fill-rule:evenodd"
     id="g4"
     transform="matrix(1.0412387,0,0,1.0412387,-0.48622666,-0.48669113)">
    <path
       d="m 12.589844,22.59375 c 0,0 -0.949219,0.550781 0.667968,0.738281 1.964844,0.222657 2.964844,0.191407 5.125,-0.21875 0,0 0.570313,0.355469 1.359376,0.664063 -4.84375,2.078125 -10.960938,-0.117188 -7.152344,-1.183594"
       id="path6"
       inkscape:connector-curvature="0" />
    <path
       d="m 11.996094,19.886719 c 0,0 -1.0625,0.789062 0.558594,0.953125 2.09375,0.214844 3.746093,0.234375 6.609374,-0.316406 0,0 0.394532,0.402343 1.019532,0.621093 -5.859375,1.710938 -12.382813,0.132813 -8.1875,-1.257812"
       id="path8"
       inkscape:connector-curvature="0" />
    <path
       d="m 16.980469,15.292969 c 1.195312,1.375 -0.3125,2.609375 -0.3125,2.609375 0,0 3.03125,-1.5625 1.640625,-3.519532 -1.300782,-1.832031 -2.296875,-2.734374 3.101562,-5.867187 0,0 -8.46875,2.117187 -4.429687,6.777344"
       id="path10"
       inkscape:connector-curvature="0" />
    <path
       d="m 23.386719,24.597656 c 0,0 0.703125,0.578125 -0.769531,1.023438 -2.792969,0.847656 -11.632813,1.105468 -14.089844,0.03125 -0.882813,-0.382813 0.773437,-0.914063 1.292968,-1.027344 0.542969,-0.117188 0.855469,-0.09375 0.855469,-0.09375 -0.980469,-0.691406 -6.347656,1.355469 -2.726562,1.941406 9.875,1.601563 18,-0.71875 15.4375,-1.875"
       id="path12"
       inkscape:connector-curvature="0" />
    <path
       d="m 13.039062,17.082031 c 0,0 -4.496093,1.066407 -1.589843,1.457031 1.226562,0.160157 3.671875,0.125 5.945312,-0.06641 1.863281,-0.15625 3.730469,-0.492187 3.730469,-0.492187 0,0 -0.65625,0.285156 -1.132812,0.605469 C 15.429688,19.789062 6.609375,19.230469 9.148438,18 c 2.148437,-1.035156 3.890624,-0.917969 3.890624,-0.917969"
       id="path14"
       inkscape:connector-curvature="0" />
    <path
       d="m 21.105469,21.589844 c 4.644531,-2.414063 2.5,-4.730469 1,-4.417969 -0.367188,0.07813 -0.53125,0.144531 -0.53125,0.144531 0,0 0.132812,-0.21875 0.394531,-0.308594 2.964844,-1.042968 5.246094,3.074219 -0.953125,4.703126 0,0 0.07031,-0.0625 0.08984,-0.121094"
       id="path16"
       inkscape:connector-curvature="0" />
    <path
       d="m 18.308594,3.464844 c 0,0 2.570312,2.570312 -2.4375,6.523437 -4.015625,3.171875 -0.917969,4.984375 0,7.046875 -2.34375,-2.113281 -4.066406,-3.976562 -2.914063,-5.710937 1.695313,-2.542969 6.390625,-3.773438 5.351563,-7.859375"
       id="path18"
       inkscape:connector-curvature="0" />
    <path
       d="m 13.496094,28.125 c 4.457031,0.285156 11.296875,-0.160156 11.460937,-2.265625 0,0 -0.3125,0.796875 -3.683593,1.433594 C 17.472656,28.007812 12.78125,27.925781 10,27.46875 c 0,0 0.570312,0.46875 3.496094,0.65625"
       id="path20"
       inkscape:connector-curvature="0" />
  </g>
</svg>

<svg width="32" xmlns="http://www.w3.org/2000/svg" height="32" viewBox="0 0 32 32" xmlns:xlink="http://www.w3.org/1999/xlink">
<g style="fill:#e660c1;fill-rule:evenodd">
<path d="M 12.589844 22.59375 C 12.589844 22.59375 11.640625 23.144531 13.257812 23.332031 C 15.222656 23.554688 16.222656 23.523438 18.382812 23.113281 C 18.382812 23.113281 18.953125 23.46875 19.742188 23.777344 C 14.898438 25.855469 8.78125 23.660156 12.589844 22.59375 "/>
<path d="M 11.996094 19.886719 C 11.996094 19.886719 10.933594 20.675781 12.554688 20.839844 C 14.648438 21.054688 16.300781 21.074219 19.164062 20.523438 C 19.164062 20.523438 19.558594 20.925781 20.183594 21.144531 C 14.324219 22.855469 7.800781 21.277344 11.996094 19.886719 "/>
<path d="M 16.980469 15.292969 C 18.175781 16.667969 16.667969 17.902344 16.667969 17.902344 C 16.667969 17.902344 19.699219 16.339844 18.308594 14.382812 C 17.007812 12.550781 16.011719 11.648438 21.410156 8.515625 C 21.410156 8.515625 12.941406 10.632812 16.980469 15.292969 "/>
<path d="M 23.386719 24.597656 C 23.386719 24.597656 24.089844 25.175781 22.617188 25.621094 C 19.824219 26.46875 10.984375 26.726562 8.527344 25.652344 C 7.644531 25.269531 9.300781 24.738281 9.820312 24.625 C 10.363281 24.507812 10.675781 24.53125 10.675781 24.53125 C 9.695312 23.839844 4.328125 25.886719 7.949219 26.472656 C 17.824219 28.074219 25.949219 25.753906 23.386719 24.597656 "/>
<path d="M 13.039062 17.082031 C 13.039062 17.082031 8.542969 18.148438 11.449219 18.539062 C 12.675781 18.699219 15.121094 18.664062 17.394531 18.472656 C 19.257812 18.316406 21.125 17.980469 21.125 17.980469 C 21.125 17.980469 20.46875 18.265625 19.992188 18.585938 C 15.429688 19.789062 6.609375 19.230469 9.148438 18 C 11.296875 16.964844 13.039062 17.082031 13.039062 17.082031 "/>
<path d="M 21.105469 21.589844 C 25.75 19.175781 23.605469 16.859375 22.105469 17.171875 C 21.738281 17.25 21.574219 17.316406 21.574219 17.316406 C 21.574219 17.316406 21.707031 17.097656 21.96875 17.007812 C 24.933594 15.964844 27.214844 20.082031 21.015625 21.710938 C 21.015625 21.710938 21.085938 21.648438 21.105469 21.589844 "/>
<path d="M 18.308594 3.464844 C 18.308594 3.464844 20.878906 6.035156 15.871094 9.988281 C 11.855469 13.160156 14.953125 14.972656 15.871094 17.035156 C 13.527344 14.921875 11.804688 13.058594 12.957031 11.324219 C 14.652344 8.78125 19.347656 7.550781 18.308594 3.464844 "/>
<path d="M 13.496094 28.125 C 17.953125 28.410156 24.792969 27.964844 24.957031 25.859375 C 24.957031 25.859375 24.644531 26.65625 21.273438 27.292969 C 17.472656 28.007812 12.78125 27.925781 10 27.46875 C 10 27.46875 10.570312 27.9375 13.496094 28.125 "/>
</g>
</svg>
